casedrop/img/balance/images/bank-cards.svg

<svg width="97" height="48" viewBox="0 0 97 48" fill="none" xmlns="http://www.w3.org/2000/svg">
<g clip-path="url(#clip0_4215_15151)">
<path d="M55.458 38.7888V46.8738H59.9195V42.0827H64.976C67.1026 42.0677 68.9095 40.6978 69.5937 38.7888H55.458Z" fill="white"/>
<path d="M54.8633 32.1262C55.1235 35.4276 58.2317 38.0402 62.0241 38.0402C62.0389 38.0402 69.7797 38.0402 69.7797 38.0402C69.8392 37.7408 69.8689 37.4264 69.8689 37.1045C69.8689 34.3646 67.6753 32.1487 64.9612 32.1262H54.8633Z" fill="url(#paint0_linear_4215_15151)"/>
<path d="M48.2607 37.9579C48.3128 37.868 48.3946 37.8156 48.4987 37.8156C48.6474 37.8156 48.7589 37.9354 48.7664 38.0776V46.7989H53.2279V32.1262H48.7664C48.2013 32.1487 47.5618 32.5604 47.3238 33.077L43.7769 40.7427C43.7695 40.7726 43.7546 40.8026 43.7397 40.8325C43.6877 40.9074 43.5984 40.9598 43.4943 40.9598C43.3307 40.9598 43.1969 40.825 43.1969 40.6603V32.1262H38.7354V46.7989H43.1969C43.7546 46.769 44.3792 46.3572 44.6171 45.8482L48.2607 37.9803C48.2533 37.9728 48.2607 37.9654 48.2607 37.9579Z" fill="white"/>
<path d="M31.6041 38.2124L28.9941 46.7989H25.7818L23.1792 38.2049C23.1569 38.0702 23.038 37.9654 22.8892 37.9654C22.7256 37.9654 22.5992 38.1001 22.5992 38.2573V46.7914H18.1377V32.1187H21.9672H23.1049C23.9228 32.1187 24.7854 32.7625 25.0233 33.5486L27.1946 40.6978C27.3062 41.0571 27.4772 41.0496 27.5887 40.6978L29.76 33.5486C29.998 32.7551 30.8605 32.1187 31.6785 32.1187H32.8162H36.6456V46.7914H32.1841V38.2573C32.1841 38.2573 32.1841 38.2573 32.1841 38.2498C32.1841 38.0851 32.0503 37.9579 31.8941 37.9579C31.7454 37.9654 31.6264 38.0702 31.6041 38.2124Z" fill="white"/>
</g>
<g clip-path="url(#clip1_4215_15151)">
<path d="M24.0445 23.0974H14.2109V5.37171H24.0445V23.0974Z" fill="#FF5F00"/>
<path d="M14.8414 14.2332C14.8414 10.6374 16.5198 7.43437 19.1338 5.37028C17.2223 3.8609 14.8099 2.95998 12.1881 2.95998C5.98149 2.95998 0.950195 8.00711 0.950195 14.2332C0.950195 20.4592 5.98149 25.5063 12.1881 25.5063C14.8099 25.5063 17.2223 24.6054 19.1338 23.096C16.5198 21.0319 14.8414 17.8289 14.8414 14.2332Z" fill="#EB001B"/>
<path d="M37.3063 14.2332C37.3063 20.4592 32.275 25.5063 26.0684 25.5063C23.4466 25.5063 21.0342 24.6054 19.1221 23.096C21.7367 21.0319 23.4151 17.8289 23.4151 14.2332C23.4151 10.6374 21.7367 7.43437 19.1221 5.37028C21.0342 3.8609 23.4466 2.95998 26.0684 2.95998C32.275 2.95998 37.3063 8.00711 37.3063 14.2332Z" fill="#F79E1B"/>
</g>
<path d="M78.6201 11.4915C77.4814 11.1599 76.2777 10.9936 75.0657 11.0002C71.1463 11.0002 68.3782 12.578 68.3586 14.8429C68.3341 16.5068 70.3256 17.4445 71.8322 18.0004C73.3779 18.572 73.8948 18.9322 73.8899 19.4431C73.8801 20.2203 72.6552 20.5726 71.5162 20.5726C69.9509 20.5726 69.0959 20.3984 67.7805 19.9619L67.293 19.7798L66.7369 22.3873C67.6898 22.7044 69.407 22.9765 71.1806 23C75.3474 23 78.0714 21.432 78.1032 19.0222C78.1375 17.6931 77.0597 16.6888 74.7913 15.8588C73.4122 15.3205 72.5573 14.9603 72.5573 14.4142C72.5573 13.9306 73.2897 13.4139 74.8207 13.4139C75.8397 13.3942 76.8523 13.5469 77.7921 13.8621L78.1596 13.9933L78.7156 11.4739L78.6201 11.4915ZM88.791 11.2116H85.7289C84.776 11.2116 84.0583 11.4211 83.6419 12.1767L77.7529 22.8375H81.9198L82.7526 21.0894L87.8381 21.0933C87.9581 21.5025 88.3256 22.8375 88.3256 22.8375H92L88.791 11.2116ZM62.722 11.1137H66.6928L64.2089 22.7455H60.243L62.722 11.1098V11.1137ZM52.6418 17.5247L53.0533 19.1397L56.9335 11.2116H61.1395L54.8905 22.8219H50.6943L47.2648 12.991C47.2093 12.8289 47.0788 12.6897 46.8998 12.6015C45.6637 12.0912 44.354 11.704 43 11.4485L43.0539 11.2038H49.445C50.3122 11.2312 51.0103 11.4485 51.243 12.1884L52.6393 17.5306L52.6418 17.5247ZM83.8917 18.711L85.4742 15.4575C85.4546 15.4928 85.8 14.7861 86.0009 14.3496L86.2728 15.3538L87.1914 18.709H83.8893L83.8917 18.711Z" fill="white"/>
<defs>
<linearGradient id="paint0_linear_4215_15151" x1="54.8651" y1="35.0832" x2="69.868" y2="35.0832" gradientUnits="userSpaceOnUse">
<stop stop-color="#00A0E5"/>
<stop offset="1" stop-color="#0077C3"/>
</linearGradient>
<clipPath id="clip0_4215_15151">
<rect width="58" height="17" fill="white" transform="translate(15 31)"/>
</clipPath>
<clipPath id="clip1_4215_15151">
<rect width="38" height="24" fill="white" transform="translate(0 2)"/>
</clipPath>
</defs>
</svg>

<svg width="97" height="48" fill="none" xmlns="http://www.w3.org/2000/svg"><g clip-path="url(#clip0_4215_15151)"><path d="M55.458 38.789v8.085h4.462v-4.791h5.056c2.127-.015 3.933-1.385 4.618-3.294H55.458z" fill="#fff"/><path d="M54.863 32.126c.26 3.302 3.369 5.914 7.161 5.914h7.756c.06-.3.089-.614.089-.935 0-2.74-2.194-4.956-4.908-4.979H54.863z" fill="url(#paint0_linear_4215_15151)"/><path d="M48.26 37.958a.266.266 0 01.239-.142c.148 0 .26.12.267.262v8.72h4.462V32.127h-4.462c-.565.023-1.204.434-1.442.951l-3.547 7.666a.456.456 0 01-.037.09.298.298 0 01-.543-.173v-8.534h-4.462V46.8h4.462c.558-.03 1.182-.442 1.42-.95l3.644-7.869c-.008-.007 0-.015 0-.022zm-16.656.254l-2.61 8.587h-3.212l-2.603-8.594a.29.29 0 00-.29-.24.291.291 0 00-.29.292v8.534h-4.461V32.12h4.967c.818 0 1.68.644 1.918 1.43l2.172 7.149c.111.36.282.352.394 0l2.171-7.15c.238-.793 1.1-1.43 1.918-1.43h4.968v14.673h-4.462v-8.541a.291.291 0 00-.29-.292.303.303 0 00-.29.254z" fill="#fff"/></g><g clip-path="url(#clip1_4215_15151)"><path d="M24.044 23.097h-9.833V5.372h9.833v17.725z" fill="#FF5F00"/><path d="M14.841 14.233c0-3.596 1.679-6.799 4.293-8.863a11.17 11.17 0 00-6.946-2.41C5.981 2.96.95 8.007.95 14.233s5.031 11.273 11.238 11.273c2.622 0 5.034-.9 6.946-2.41a11.266 11.266 0 01-4.293-8.863z" fill="#EB001B"/><path d="M37.306 14.233c0 6.226-5.031 11.273-11.238 11.273-2.621 0-5.034-.9-6.946-2.41a11.265 11.265 0 004.293-8.863c0-3.596-1.678-6.799-4.293-8.863a11.172 11.172 0 016.946-2.41c6.207 0 11.238 5.047 11.238 11.273z" fill="#F79E1B"/></g><path d="M78.62 11.492A12.502 12.502 0 0075.066 11c-3.92 0-6.688 1.578-6.707 3.843-.025 1.664 1.967 2.602 3.473 3.157 1.546.572 2.063.932 2.058 1.443-.01.777-1.235 1.13-2.374 1.13-1.565 0-2.42-.175-3.736-.611l-.487-.182-.556 2.607c.953.317 2.67.59 4.444.613 4.166 0 6.89-1.568 6.922-3.978.035-1.329-1.043-2.333-3.312-3.163-1.379-.539-2.234-.899-2.234-1.445 0-.483.733-1 2.264-1a8.84 8.84 0 012.971.448l.368.131.556-2.52-.096.018zm10.171-.28h-3.062c-.953 0-1.67.21-2.087.965l-5.89 10.66h4.168l.833-1.748 5.085.004c.12.41.488 1.744.488 1.744H92l-3.209-11.625zm-26.069-.098h3.97L64.21 22.745h-3.966l2.479-11.635v.004zm-10.08 6.41l.411 1.616 3.88-7.928h4.206l-6.248 11.61h-4.197l-3.43-9.831a.7.7 0 00-.364-.39 19.897 19.897 0 00-3.9-1.153l.054-.244h6.391c.867.027 1.565.244 1.798.984l1.396 5.343.003-.006zm31.25 1.187l1.582-3.253c-.02.035.326-.672.527-1.108l.272 1.004.918 3.355H83.89l.003.002z" fill="#fff"/><defs><clipPath id="clip0_4215_15151"><path fill="#fff" transform="translate(15 31)" d="M0 0h58v17H0z"/></clipPath><clipPath id="clip1_4215_15151"><path fill="#fff" transform="translate(0 2)" d="M0 0h38v24H0z"/></clipPath><linearGradient id="paint0_linear_4215_15151" x1="54.865" y1="35.083" x2="69.868" y2="35.083" gradientUnits="userSpaceOnUse"><stop stop-color="#00A0E5"/><stop offset="1" stop-color="#0077C3"/></linearGradient></defs></svg>
